X: 261
T:Bush on the Hill, The
M:6/8
L:1/8
R:jig
D:Johnny B. Connolly: Bridgetown
Z:Devin McCabe
K:G
~G,3 DB,D|GG,G Bdg|edc BcA|BGE DB,A,|
!~G,3 DB,D|GG,G Bdg|edc BcA|BGF ~G3:|
!GBd gag|ece dBG|cBc dBG|~A3 BGF|
!~G3 gGg|ece dBG|cBc dBG|1AGF ~G3|2AFG GDB,:|
